wp-content/themes/KOOEN/assets/img/common/top.svg

<svg fill="none" height="20" viewBox="0 0 35 20" width="35" xmlns="http://www.w3.org/2000/svg"><path d="m5.6 3.225v15.775h-2.225v-15.775h-3.375v-1.925h8.975v1.925zm16.3914 6.9c0 1.3833-.1417 2.65-.425 3.8-.2667 1.1333-.6667 2.1083-1.2 2.925-.5167.8167-1.15 1.45-1.9 1.9-.7333.45-1.575.675-2.525.675s-1.8-.225-2.55-.675-1.3917-1.0833-1.925-1.9c-.5167-.8167-.9167-1.7917-1.2-2.925-.26666-1.15-.39999-2.4167-.39999-3.8 0-1.38333.13333-2.64167.39999-3.775.2667-1.15.6583-2.125 1.175-2.925.5167-.81667 1.15-1.44167 1.9-1.875.7667-.45 1.6333-.675001 2.6-.675001.95 0 1.7917.225001 2.525.675001.75.43333 1.3833 1.05833 1.9 1.875.5333.8.9333 1.775 1.2 2.925.2833 1.13333.425 2.39167.425 3.775zm-2.375 0c0-1-.0833-1.94167-.25-2.825-.15-.88333-.3833-1.65-.7-2.3-.3-.65-.6833-1.15833-1.15-1.525-.45-.38333-.975-.575-1.575-.575-.6167 0-1.1583.19167-1.625.575-.4667.36667-.8583.875-1.175 1.525-.3.65-.525 1.41667-.675 2.3s-.225 1.825-.225 2.825.075 1.9417.225 2.825.375 1.65.675 2.3c.3167.65.7083 1.1667 1.175 1.55.4667.3667 1.0083.55 1.625.55.6 0 1.125-.1833 1.575-.55.4667-.3833.85-.9 1.15-1.55.3167-.65.55-1.4167.7-2.3.1667-.8833.25-1.825.25-2.825zm14.6775-3.85c0 .85-.125 1.6-.375 2.25s-.5916 1.19167-1.025 1.625c-.4166.4167-.9.7333-1.45.95-.5333.2167-1.1.325-1.7.325h-2.4v7.575h-2.225v-17.7h4.475c.5334 0 1.075.08333 1.625.25.5667.15 1.075.41667 1.525.8s.8167.9 1.1 1.55c.3.63333.45 1.425.45 2.375zm-2.225.025c0-1.06667-.25-1.84167-.75-2.325-.5-.5-1.15-.75-1.95-.75h-2.025v6.325h2.025c.8 0 1.45-.26667 1.95-.8.5-.55.75-1.36667.75-2.45z" fill="#fff"/></svg>

<svg width="35" height="20" viewBox="0 0 35 20" fill="none" xmlns="http://www.w3.org/2000/svg">
<path d="M5.6 3.225V19H3.375V3.225H0V1.3H8.975V3.225H5.6ZM21.9914 10.125C21.9914 11.5083 21.8497 12.775 21.5664 13.925C21.2997 15.0583 20.8997 16.0333 20.3664 16.85C19.8497 17.6667 19.2164 18.3 18.4664 18.75C17.7331 19.2 16.8914 19.425 15.9414 19.425C14.9914 19.425 14.1414 19.2 13.3914 18.75C12.6414 18.3 11.9997 17.6667 11.4664 16.85C10.9497 16.0333 10.5497 15.0583 10.2664 13.925C9.99974 12.775 9.86641 11.5083 9.86641 10.125C9.86641 8.74167 9.99974 7.48333 10.2664 6.35C10.5331 5.2 10.9247 4.225 11.4414 3.425C11.9581 2.60833 12.5914 1.98333 13.3414 1.55C14.1081 1.1 14.9747 0.874999 15.9414 0.874999C16.8914 0.874999 17.7331 1.1 18.4664 1.55C19.2164 1.98333 19.8497 2.60833 20.3664 3.425C20.8997 4.225 21.2997 5.2 21.5664 6.35C21.8497 7.48333 21.9914 8.74167 21.9914 10.125ZM19.6164 10.125C19.6164 9.125 19.5331 8.18333 19.3664 7.3C19.2164 6.41667 18.9831 5.65 18.6664 5C18.3664 4.35 17.9831 3.84167 17.5164 3.475C17.0664 3.09167 16.5414 2.9 15.9414 2.9C15.3247 2.9 14.7831 3.09167 14.3164 3.475C13.8497 3.84167 13.4581 4.35 13.1414 5C12.8414 5.65 12.6164 6.41667 12.4664 7.3C12.3164 8.18333 12.2414 9.125 12.2414 10.125C12.2414 11.125 12.3164 12.0667 12.4664 12.95C12.6164 13.8333 12.8414 14.6 13.1414 15.25C13.4581 15.9 13.8497 16.4167 14.3164 16.8C14.7831 17.1667 15.3247 17.35 15.9414 17.35C16.5414 17.35 17.0664 17.1667 17.5164 16.8C17.9831 16.4167 18.3664 15.9 18.6664 15.25C18.9831 14.6 19.2164 13.8333 19.3664 12.95C19.5331 12.0667 19.6164 11.125 19.6164 10.125ZM34.2939 6.275C34.2939 7.125 34.1689 7.875 33.9189 8.525C33.6689 9.175 33.3273 9.71667 32.8939 10.15C32.4773 10.5667 31.9939 10.8833 31.4439 11.1C30.9106 11.3167 30.3439 11.425 29.7439 11.425H27.3439V19H25.1189V1.3H29.5939C30.1273 1.3 30.6689 1.38333 31.2189 1.55C31.7856 1.7 32.2939 1.96667 32.7439 2.35C33.1939 2.73333 33.5606 3.25 33.8439 3.9C34.1439 4.53333 34.2939 5.325 34.2939 6.275ZM32.0689 6.3C32.0689 5.23333 31.8189 4.45833 31.3189 3.975C30.8189 3.475 30.1689 3.225 29.3689 3.225H27.3439V9.55H29.3689C30.1689 9.55 30.8189 9.28333 31.3189 8.75C31.8189 8.2 32.0689 7.38333 32.0689 6.3Z" fill="white"/>
</svg>
